icons/desktop/16/svg/picture-in-picture-open-16.svg

<svg width="16" height="16" viewBox="0 0 16 16" fill="none" xmlns="http://www.w3.org/2000/svg">
<path d="M15 11.0003C15.552 11.0003 16 11.4483 16 12.0003V15.0003C15.9998 15.5522 15.5519 16.0003 15 16.0003H11C10.4481 16.0003 10.0002 15.5522 10 15.0003V12.0003C10 11.4483 10.448 11.0003 11 11.0003H15Z" fill="black"/>
<path d="M2.41504 1.26304C5.43488 0.915062 8.53768 0.914138 11.5615 1.26109C12.9505 1.42009 14 2.59641 14 3.99741V9.50034H12.5V3.99741C12.5 3.35941 12.0236 2.82332 11.3906 2.75132C9.93873 2.58435 8.46289 2.50035 7 2.50034C5.529 2.50034 4.04394 2.58527 2.58594 2.75327C1.96712 2.82529 1.50021 3.35773 1.5 3.99351V12.0033C1.50016 12.6411 1.97648 13.1774 2.60938 13.2494C4.55423 13.4723 6.53215 13.5305 8.5 13.4535L8.50098 14.9496C8.00098 14.9696 7.49998 15.0003 7.00098 15.0003C5.48112 15.0003 3.94731 14.9116 2.43945 14.7386C1.05056 14.5796 0.00113983 13.4041 0.000976562 12.0033V3.99351C0.00119368 2.5957 1.03918 1.42202 2.41504 1.26304Z" fill="black"/>
<path d="M3.75098 4.00034C3.94297 4.00035 4.13525 4.07407 4.28125 4.22007L6.89062 6.83042L8.17969 5.54234C8.48169 5.23934 8.99902 5.4542 8.99902 5.8812V9.51988C8.99902 9.78488 8.78356 10.0003 8.51855 10.0003H4.87988C4.45296 10.0002 4.23904 9.48298 4.54102 9.18101L5.83105 7.89097L3.2207 5.28062C2.92808 4.98765 2.92799 4.51298 3.2207 4.22007C3.3667 4.07307 3.55898 4.00034 3.75098 4.00034Z" fill="black"/>
</svg>

<!-- This Source Code Form is subject to the terms of the Mozilla Public
   - License, v. 2.0. If a copy of the MPL was not distributed with this
   - file, You can obtain one at http://mozilla.org/MPL/2.0/. -->
<svg xmlns="http://www.w3.org/2000/svg" width="16" height="16" fill="context-fill" fill-opacity="context-fill-opacity" viewBox="0 0 16 16">
    <path d="M15 11a1 1 0 0 1 1 1v3a1 1 0 0 1-1 1h-4a1 1 0 0 1-1-1v-3a1 1 0 0 1 1-1z" />
    <path d="M2.415 1.263a40.3 40.3 0 0 1 9.147-.002A2.753 2.753 0 0 1 14 3.997V9.5h-1.5V3.997c0-.638-.476-1.174-1.11-1.246a38.6 38.6 0 0 0-8.804.002A1.24 1.24 0 0 0 1.5 3.993v8.01c0 .638.476 1.174 1.11 1.246 1.944.223 3.922.281 5.89.204l.001 1.497c-.5.02-1.001.05-1.5.05-1.52 0-3.054-.088-4.562-.261a2.75 2.75 0 0 1-2.438-2.736v-8.01a2.74 2.74 0 0 1 2.414-2.73" />
    <path d="M3.751 4c.192 0 .384.074.53.22l2.61 2.61L8.18 5.542a.48.48 0 0 1 .819.34V9.52a.48.48 0 0 1-.48.48h-3.64a.48.48 0 0 1-.338-.819l1.29-1.29-2.61-2.61A.75.75 0 0 1 3.75 4" />
</svg>
